Icons/sequelize.svg

<svg width="256" height="256" viewBox="0 0 256 256" fill="none" xmlns="http://www.w3.org/2000/svg">
<rect width="256" height="256" rx="60" fill="#242938"/>
<path d="M191.959 91.9785V163.985L128.093 199.834L127.506 200.346V227.488L128.093 228L218.013 178.273V78H217.155L191.802 91.5759V92.1373" fill="#2F406A"/>
<path d="M63.616 164.406L128.139 200.047V228L37 178V78H37.9175L63.3506 92.1032L63.6193 92.9247V164.719" fill="#2379BD"/>
<path d="M63.7847 92.557L37 77.8367L127.751 28L218.013 77.631L191.923 91.5854L127.637 56.6747L63.6769 92.4544" fill="#03AFEF"/>
<path d="M126.944 155.848L126.241 155.19V128.473L126.944 128.117V127.46L151.43 114.076H152.19V141.655L126.782 155.75" fill="#2F406A"/>
<path d="M101.139 143.086V114.076H101.846L126.873 127.835V156.481L100.924 143.083" fill="#2379BD"/>
<path d="M126.66 99.6754L101.557 114.232L127.087 128.633L152.19 114.287L126.656 99.519" fill="#03AFEF"/>
<path d="M95.8968 174.203L95.2278 173.536V146.394L95.8968 146.034V145.367L119.189 131.798H119.911V159.76L95.743 174.049" fill="#2F406A"/>
<path d="M69.9114 160.804V131.798H70.6234L95.8608 145.557V174.203L69.9146 160.804" fill="#2379BD"/>
<path d="M95.0677 117.292L69.9114 131.798L95.443 146.355L120.544 132.008L95.0127 117.241" fill="#03AFEF"/>
<path d="M159.855 174.836L159.152 174.179V147.442L159.855 147.088V146.43L184.342 133.063H185.101V160.608L159.693 174.684" fill="#2F406A"/>
<path d="M134.578 161.431V132.431H135.393L160.418 146.19V174.836L134.468 161.431" fill="#2379BD"/>
<path d="M159.889 117.874L135.101 132.114L160.314 146.355L185.101 132.32L159.889 117.874Z" fill="#03AFEF"/>
<path d="M128.842 192.557L128.139 191.89V164.746L128.842 164.386V163.719L153.329 150.152H154.089V178.109L128.68 192.397" fill="#2F406A"/>
<path d="M102.823 179.108V150.152H103.535L128.772 163.911V192.557L102.826 179.105" fill="#2379BD"/>
<path d="M128.268 135.602L102.823 149.94L128.7 164.076L154.089 149.94L128.265 135.595" fill="#03AFEF"/>
<path d="M126.944 117.874L126.241 117.205V90.101L126.944 89.7396V89.0713L151.43 75.4688H152.19V103.499L126.944 117.874Z" fill="#2F406A"/>
<path d="M101.139 104.546V75.4688H101.846L126.873 89.2612V117.874L100.924 104.442" fill="#2379BD"/>
<path d="M126.658 61.5444L101.557 75.7849L127.089 90.0254L152.19 75.9913L126.658 61.5444Z" fill="#03AFEF"/>
<path d="M95.8968 135.595L95.2278 134.921V107.301L95.8968 106.937V106.263L119.189 92.5571H119.911V120.801L95.743 135.234" fill="#2F406A"/>
<path d="M69.9114 122.199V93.1899H70.6234L95.8608 106.949V135.595L69.9146 122.196" fill="#2379BD"/>
<path d="M95.0677 78.6328L69.9114 92.7967L95.443 107.114L120.544 93.1056L95.0127 78.686" fill="#03AFEF"/>
<path d="M159.855 136.861L159.152 136.183V108.654L159.855 108.287V107.609L184.342 93.8228H185.101V122.234L159.693 136.752" fill="#2F406A"/>
<path d="M135.101 123.402V93.8228H135.884L159.785 107.753V136.861L135.101 123.402Z" fill="#2379BD"/>
<path d="M159.889 79.2724L135.101 93.5066L160.314 107.747L185.101 93.713L159.889 79.2661" fill="#03AFEF"/>
<path d="M128.842 153.946L128.139 153.267V125.78L128.842 125.413V124.733L153.329 110.912H154.089V139.394L128.842 153.95" fill="#2F406A"/>
<path d="M102.823 140.451V110.912H103.535L128.772 124.926V153.95L102.823 140.451Z" fill="#2379BD"/>
<path d="M128.294 96.9873L102.823 111.202L128.673 125.468L154.089 111.409L128.297 96.9936" fill="#03AFEF"/>
</svg>

<svg width="256" height="256" viewBox="0 0 256 256" fill="none" xmlns="http://www.w3.org/2000/svg"><path d="M191.959 91.979v72.006l-63.866 35.849-.587.512v27.142l.587.512 89.92-49.727V78h-.858l-25.353 13.576v.561" fill="#2f406a"/><path d="m63.616 164.406 64.523 35.641V228L37 178V78h.917l25.434 14.103.268.822v71.794" fill="#2379bd"/><path d="M63.785 92.557 37 77.837 127.751 28l90.262 49.631-26.09 13.954-64.286-34.91-63.96 35.78" fill="#03afef"/><path d="m126.944 155.848-.703-.658v-26.717l.703-.356v-.657l24.486-13.384h.76v27.579l-25.408 14.095" fill="#2f406a"/><path d="M101.139 143.086v-29.01h.707l25.027 13.759v28.646l-25.949-13.398" fill="#2379bd"/><path d="m126.66 99.675-25.103 14.557 25.53 14.401 25.103-14.346-25.534-14.768" fill="#03afef"/><path d="m95.897 174.203-.67-.667v-27.142l.67-.36v-.667l23.292-13.569h.722v27.962l-24.168 14.289" fill="#2f406a"/><path d="M69.911 160.804v-29.006h.712l25.238 13.759v28.646l-25.946-13.399" fill="#2379bd"/><path d="M95.068 117.292 69.91 131.798l25.532 14.557 25.101-14.347-25.531-14.767" fill="#03afef"/><path d="m159.855 174.836-.703-.657v-26.737l.703-.354v-.658l24.487-13.367h.759v27.545l-25.408 14.076" fill="#2f406a"/><path d="M134.578 161.431v-29h.815l25.025 13.759v28.646l-25.95-13.405" fill="#2379bd"/><path d="m159.889 117.874-24.788 14.24 25.213 14.241 24.787-14.035z" fill="#03afef"/><path d="m128.842 192.557-.703-.667v-27.144l.703-.36v-.667l24.487-13.567h.76v27.957l-25.409 14.288" fill="#2f406a"/><path d="M102.823 179.108v-28.956h.712l25.237 13.759v28.646l-25.946-13.452" fill="#2379bd"/><path d="m128.268 135.602-25.445 14.338 25.877 14.136 25.389-14.136-25.824-14.345" fill="#03afef"/><path d="m126.944 117.874-.703-.669V90.101l.703-.361v-.669L151.43 75.47h.76v28.03z" fill="#2f406a"/><path d="M101.139 104.546V75.469h.707l25.027 13.792v28.613l-25.949-13.432" fill="#2379bd"/><path d="m126.658 61.544-25.101 14.24 25.532 14.241 25.101-14.034z" fill="#03afef"/><path d="m95.897 135.595-.67-.674v-27.62l.67-.364v-.674l23.292-13.706h.722v28.244l-24.168 14.433" fill="#2f406a"/><path d="M69.911 122.199v-29.01h.712l25.238 13.76v28.646l-25.946-13.399" fill="#2379bd"/><path d="M95.068 78.633 69.91 92.797l25.532 14.317 25.101-14.008-25.531-14.42" fill="#03afef"/><path d="m159.855 136.861-.703-.678v-27.529l.703-.367v-.678l24.487-13.786h.759v28.411l-25.408 14.518" fill="#2f406a"/><path d="M135.101 123.402v-29.58h.783l23.901 13.931v29.108z" fill="#2379bd"/><path d="m159.889 79.272-24.788 14.235 25.213 14.24 24.787-14.034-25.212-14.447" fill="#03afef"/><path d="m128.842 153.946-.703-.679V125.78l.703-.367v-.68l24.487-13.821h.76v28.482l-25.247 14.556" fill="#2f406a"/><path d="M102.823 140.451v-29.539h.712l25.237 14.014v29.024z" fill="#2379bd"/><path d="m128.294 96.987-25.471 14.215 25.85 14.266 25.416-14.059-25.792-14.415" fill="#03afef"/></svg>
